assets/img/react_logo.svg

<?xml version="1.0" encoding="UTF-8" standalone="no"?>
<!-- Created with Inkscape (http://www.inkscape.org/) -->

<svg
   width="16"
   height="16"
   viewBox="0 0 4.2333332 4.2333333"
   version="1.1"
   id="svg5"
   xml:space="preserve"
   sodipodi:docname="react_logo.svg"
   inkscape:version="1.2.1 (9c6d41e4, 2022-07-14)"
   xmlns:inkscape="http://www.inkscape.org/namespaces/inkscape"
   xmlns:sodipodi="http://sodipodi.sourceforge.net/DTD/sodipodi-0.dtd"
   xmlns="http://www.w3.org/2000/svg"
   xmlns:svg="http://www.w3.org/2000/svg"><sodipodi:namedview
     id="namedview195"
     pagecolor="#ffffff"
     bordercolor="#000000"
     borderopacity="0.25"
     inkscape:showpageshadow="2"
     inkscape:pageopacity="0.0"
     inkscape:pagecheckerboard="0"
     inkscape:deskcolor="#d1d1d1"
     showgrid="false"
     inkscape:zoom="14.75"
     inkscape:cx="8.1016949"
     inkscape:cy="8"
     inkscape:window-width="1680"
     inkscape:window-height="1050"
     inkscape:window-x="0"
     inkscape:window-y="67"
     inkscape:window-maximized="0"
     inkscape:current-layer="svg5" /><defs
     id="defs2" /><rect
     style="fill:#00d8ff;stroke-width:0.132292;fill-opacity:1"
     id="rect393"
     width="4.2333331"
     height="4.2333331"
     x="0"
     y="0" /><path
     style="fill:#222222;fill-opacity:1;stroke-width:0.0165365"
     d="M 7.5e-8,2.1166666 V 6e-8 H 2.1166666 4.2333332 V 2.1166666 4.2333332 H 2.1166666 7.5e-8 Z M 1.5424414,3.8292931 C 1.6774044,3.7816621 1.8664828,3.6662947 2.012227,3.5426511 l 0.1071898,-0.090936 0.038253,0.031141 c 0.021039,0.017127 0.081812,0.066903 0.1350506,0.1106115 0.2161823,0.1774847 0.4376554,0.2760633 0.620222,0.2760633 0.1846542,0 0.2944372,-0.083379 0.3660133,-0.2779826 C 3.3273247,3.460042 3.3374827,3.137972 3.2996337,2.9359818 3.2845877,2.8556858 3.2782947,2.7845134 3.2856507,2.7778213 3.2930107,2.7711313 3.3399517,2.7526353 3.3899745,2.7367243 3.4399975,2.7208133 3.5542004,2.6704683 3.6437591,2.6248474 4.0086057,2.4389944 4.1618054,2.187571 4.0504135,1.9574662 3.972797,1.7971317 3.7255316,1.6228135 3.421982,1.5144319 3.3434897,1.4864065 3.2773427,1.4577761 3.2749889,1.4508089 c -0.00235,-0.00697 0.00873,-0.098727 0.024629,-0.20391 C 3.3641459,0.82002962 3.2812749,0.49235009 3.0847264,0.39720279 2.9669784,0.34020199 2.7924033,0.35417959 2.6241579,0.43407899 2.4705878,0.50700909 2.3334602,0.59893151 2.2102494,0.71153916 l -0.093443,0.0854015 -0.086886,-0.0786535 C 1.9134412,0.6128453 1.6924265,0.4697425 1.5679196,0.41915085 1.4455988,0.36944745 1.2702121,0.35134365 1.1846331,0.37958725 0.99805618,0.44116325 0.90866428,0.62942447 0.90791758,0.9623562 c -2.183e-4,0.0972809 0.012096,0.2448529 0.027365,0.3279376 0.015511,0.084404 0.021422,0.1566166 0.013395,0.1636483 -0.0079,0.00692 -0.073898,0.033226 -0.1466588,0.058454 -0.4146572,0.1437731 -0.6697265,0.3771779 -0.6697265,0.6128432 0,0.08314 0.091381,0.2458992 0.1856428,0.3306483 0.1353506,0.1216918 0.41687799,0.2701016 0.5975043,0.31498 0.052323,0.013 0.05155,-0.00961 0.00788,0.2304994 -0.00993,0.05457 -0.01785,0.1810742 -0.017609,0.2811198 6.9539e-4,0.288875 0.077516,0.4716455 0.23269682,0.5536262 0.088459,0.046732 0.2605271,0.043828 0.4040385,-0.00682 z M 2.8338343,3.7037105 C 2.6942365,3.6757465 2.4189266,3.5089877 2.2918796,3.3754413 l -0.048029,-0.050486 0.044166,-0.054307 C 2.3123076,3.2407793 2.3881432,3.1437873 2.4565393,3.0551106 2.5701934,2.9077562 2.5856837,2.8938801 2.636526,2.8938801 c 0.030597,0 0.1436089,-0.015041 0.2511386,-0.033424 0.1075298,-0.018383 0.2041531,-0.030107 0.2147189,-0.026052 0.031317,0.012017 0.060634,0.2689255 0.053021,0.4646192 C 3.1425825,3.6285916 3.048692,3.7467502 2.8338343,3.7037105 Z M 1.1945377,3.6793729 c -0.08685,-0.062655 -0.14993,-0.3003414 -0.1289683,-0.485958 0.017936,-0.1588244 0.045799,-0.32793 0.057024,-0.3460924 0.00733,-0.011853 0.068485,-0.00738 0.1923487,0.014069 0.099884,0.017297 0.2089044,0.031683 0.242267,0.031969 0.088396,7.573e-4 0.1060835,0.011446 0.1747174,0.1055833 0.034127,0.046808 0.1099967,0.1403335 0.1685993,0.2078343 l 0.10655,0.1227286 -0.073362,0.064442 C 1.8237355,3.4905557 1.6809693,3.5850792 1.5573645,3.6431258 1.422784,3.7063268 1.255119,3.7230768 1.1945377,3.6793729 Z M 2.0029332,3.0735193 C 1.9381582,2.9974553 1.8851757,2.9315006 1.8851952,2.926953 c 1.66e-5,-0.00455 0.1042047,-0.00827 0.2315225,-0.00827 0.1273177,0 0.2314807,0.00243 0.231473,0.00539 -1.45e-5,0.00574 -0.1216317,0.1614048 -0.1878138,0.2403948 l -0.03967,0.047347 z M 1.8138133,2.7494788 C 1.7553253,2.7434088 1.7443243,2.7330858 1.662531,2.6075646 1.614017,2.5331146 1.5320642,2.3923355 1.4804141,2.2947229 L 1.3865051,2.1172454 1.4653441,1.9677193 C 1.5087051,1.8854803 1.5892883,1.7458235 1.6444173,1.6573713 L 1.7446521,1.4965495 1.9190725,1.4819571 c 0.095931,-0.00803 0.2615403,-0.00915 0.3680199,-0.0025 l 0.1935994,0.012096 0.099158,0.1595922 c 0.054537,0.087776 0.1344819,0.2285924 0.1776558,0.3129259 l 0.078498,0.1533336 -0.087417,0.1698101 c -0.048079,0.093396 -0.1280264,0.23355 -0.1776604,0.3114544 l -0.090244,0.1416444 -0.101751,0.010635 C 2.2738533,2.7619367 1.9250099,2.7610257 1.8138133,2.7494788 Z M 2.2453553,2.4382503 C 2.5791121,2.2988321 2.5075494,1.7984843 2.1501543,1.7726329 1.9100768,1.7552669 1.7551931,1.90906 1.7724528,2.1476738 c 0.00951,0.1314452 0.064973,0.2150733 0.1809853,0.2728848 0.1002903,0.049977 0.2001417,0.056028 0.2919172,0.017692 z M 1.3257482,2.6999422 C 1.1467089,2.6709952 1.1533338,2.6920722 1.2469012,2.4491156 l 0.053759,-0.1395897 0.076745,0.1392148 c 0.04221,0.076568 0.096008,0.1708409 0.119552,0.2094949 0.050003,0.082093 0.061405,0.079316 -0.171209,0.041707 z m 1.3696944,0.024656 c 0,-0.00338 0.048369,-0.090914 0.107487,-0.1945198 0.059118,-0.1036056 0.107487,-0.1943587 0.107487,-0.2016739 0,-0.00732 0.00571,-0.0133 0.012683,-0.0133 0.00698,0 0.041413,0.075248 0.076527,0.1672172 0.049145,0.1287181 0.058984,0.1702203 0.042737,0.1802617 -0.011609,0.00717 -0.081392,0.021888 -0.1550747,0.032696 -0.073682,0.010808 -0.1469906,0.023209 -0.162907,0.027558 -0.015916,0.00435 -0.028939,0.00514 -0.028939,0.00176 z M 0.89290447,2.5898965 C 0.63977437,2.5006485 0.42612928,2.3623818 0.34591497,2.2358971 c -0.05665,-0.089327 -0.059765,-0.1310673 -0.01616,-0.2165396 0.036452,-0.071451 0.1034454,-0.1344341 0.2273319,-0.213722 0.090131,-0.057684 0.3313522,-0.1618324 0.4123423,-0.1780305 0.044946,-0.00899 0.049192,-0.00506 0.069713,0.064435 0.012018,0.040704 0.054224,0.1534408 0.093791,0.2505268 l 0.071939,0.1765199 -0.054167,0.1269476 c -0.029792,0.069821 -0.071125,0.1790376 -0.091852,0.2427029 -0.020727,0.063665 -0.042374,0.1209931 -0.048105,0.1273949 -0.00573,0.0064 -0.05876,-0.0054 -0.11784373,-0.026236 z M 3.2072207,2.5672855 C 3.1641647,2.4491219 3.1494617,2.4123475 3.0881324,2.2694427 L 3.0224074,2.116294 3.0803404,1.9800547 c 0.031863,-0.074932 0.074932,-0.1846084 0.095708,-0.2437262 0.020776,-0.059118 0.039999,-0.1103844 0.042717,-0.1139257 0.00932,-0.012148 0.262171,0.084187 0.377915,0.1439852 0.1383254,0.071465 0.3127064,0.2362309 0.3264553,0.3084555 0.030101,0.1581257 -0.198314,0.3618025 -0.5572658,0.4969116 -0.1356528,0.05106 -0.1384437,0.050981 -0.1586492,-0.00447 z M 1.2344635,1.7508673 C 1.2004225,1.6588183 1.1761005,1.5799758 1.1804145,1.575662 1.1949205,1.561156 1.5030977,1.514122 1.5137621,1.524786 c 0.0058,0.0058 -0.022526,0.065074 -0.06295,0.1317157 -0.040424,0.066642 -0.089609,0.1527932 -0.1093011,0.1914472 -0.019692,0.038654 -0.037907,0.07028 -0.040479,0.07028 -0.00257,0 -0.032528,-0.075313 -0.066569,-0.1673616 z M 2.8955063,1.8725457 C 2.8846793,1.8464077 2.8357973,1.7585571 2.7868798,1.6773222 2.7179378,1.5628352 2.7036818,1.5283341 2.7234818,1.5238932 c 0.014049,-0.00315 0.09501,0.00678 0.1799135,0.022066 l 0.1543703,0.027795 -0.056662,0.158532 c -0.031164,0.087193 -0.063243,0.1651135 -0.071287,0.1731575 -0.00848,0.00848 -0.022902,-0.00536 -0.03431,-0.032898 z M 1.1187028,1.3782972 C 1.1053598,1.3331894 1.0789568,1.1635923 1.0674968,1.0493858 1.0467918,0.84304263 1.1080098,0.61199995 1.1992237,0.55223421 1.3230052,0.47112945 1.6512081,0.60302587 1.9223642,0.84284603 l 0.078549,0.0694717 -0.096428,0.11021487 C 1.8514492,1.0831507 1.7742824,1.1773958 1.7330027,1.2319661 l -0.075054,0.099219 -0.2129911,0.030272 c -0.1171452,0.01665 -0.2364404,0.034129 -0.2651007,0.038844 -0.040888,0.00673 -0.054057,0.00199 -0.061154,-0.022004 z m 1.7917138,0.00182 C 2.8512987,1.3682687 2.7498878,1.3534837 2.6850589,1.3472606 L 2.5671882,1.3359458 2.5008952,1.2426148 C 2.4644342,1.1912828 2.3894125,1.0957528 2.3341806,1.0303259 L 2.2337592,0.91136792 2.3199072,0.83339712 C 2.5201303,0.65217909 2.7623089,0.5277797 2.9172138,0.5265798 c 0.074239,-5.7497e-4 0.088696,0.005524 0.1363471,0.0575206 0.029317,0.0319901 0.062948,0.0903878 0.074736,0.12977261 0.028374,0.0948002 0.027992,0.43831219 -6.433e-4,0.58010489 -0.025776,0.1276284 -0.020547,0.125555 -0.2172356,0.086138 z M 1.8853217,1.3063802 c 3.308e-4,-0.016521 0.2168046,-0.2645833 0.2308908,-0.2645833 0.014505,0 0.1889618,0.2013504 0.2149164,0.2480468 0.011961,0.02152 -0.016652,0.024805 -0.2160929,0.024805 -0.126434,0 -0.2298054,-0.00372 -0.2297143,-0.00827 z"
     id="path339" /></svg>

<svg width="16" height="16" version="1.1" viewBox="0 0 4.2333 4.2333" xmlns="http://www.w3.org/2000/svg">
 <rect x=".13229" y=".13229" width="3.9688" height="3.9688" fill="#00d8ff" stroke-width=".12402"/>
 <path d="m7.5e-8 2.1167v-2.1167h4.2333v4.2333h-4.2333zm1.5424 1.7126c0.13496-0.047631 0.32404-0.163 0.46979-0.28664l0.10719-0.090936 0.038253 0.031141c0.021039 0.017127 0.081812 0.066903 0.13505 0.11061 0.21618 0.17748 0.43766 0.27606 0.62022 0.27606 0.18465 0 0.29444-0.083379 0.36601-0.27798 0.048369-0.13151 0.058527-0.45358 0.020678-0.65557-0.015046-0.080296-0.021339-0.15147-0.013983-0.15816 0.00736-0.00669 0.054301-0.025186 0.10432-0.041097 0.050023-0.015911 0.16423-0.066256 0.25378-0.11188 0.36485-0.18585 0.51805-0.43728 0.40665-0.66738-0.077616-0.16033-0.32488-0.33465-0.62843-0.44303-0.078492-0.028025-0.14464-0.056656-0.14699-0.063623-0.00235-0.00697 0.00873-0.098727 0.024629-0.20391 0.064528-0.42687-0.018343-0.75455-0.21489-0.8497-0.11775-0.057001-0.29232-0.043023-0.46057 0.036876-0.15357 0.07293-0.2907 0.16485-0.41391 0.27746l-0.093443 0.085402-0.086886-0.078654c-0.11648-0.10544-0.33749-0.24854-0.462-0.29914-0.12232-0.049703-0.29771-0.067807-0.38329-0.039564-0.18658 0.061576-0.27597 0.24984-0.27672 0.58277-2.183e-4 0.097281 0.012096 0.24485 0.027365 0.32794 0.015511 0.084404 0.021422 0.15662 0.013395 0.16365-0.0079 0.00692-0.073898 0.033226-0.14666 0.058454-0.41466 0.14377-0.66973 0.37718-0.66973 0.61284 0 0.08314 0.091381 0.2459 0.18564 0.33065 0.13535 0.12169 0.41688 0.2701 0.5975 0.31498 0.052323 0.013 0.05155-0.00961 0.00788 0.2305-0.00993 0.05457-0.01785 0.18107-0.017609 0.28112 6.9539e-4 0.28888 0.077516 0.47165 0.2327 0.55363 0.088459 0.046732 0.26053 0.043828 0.40404-0.00682zm1.2914-0.12558c-0.1396-0.027964-0.41491-0.19472-0.54195-0.32827l-0.048029-0.050486 0.044166-0.054307c0.024291-0.029869 0.10013-0.12686 0.16852-0.21554 0.11365-0.14735 0.12914-0.16123 0.17999-0.16123 0.030597 0 0.14361-0.015041 0.25114-0.033424 0.10753-0.018383 0.20415-0.030107 0.21472-0.026052 0.031317 0.012017 0.060634 0.26893 0.053021 0.46462-0.012822 0.32957-0.10671 0.44773-0.32157 0.40469zm-1.6393-0.024338c-0.08685-0.062655-0.14993-0.30034-0.12897-0.48596 0.017936-0.15882 0.045799-0.32793 0.057024-0.34609 0.00733-0.011853 0.068485-0.00738 0.19235 0.014069 0.099884 0.017297 0.2089 0.031683 0.24227 0.031969 0.088396 7.573e-4 0.10608 0.011446 0.17472 0.10558 0.034127 0.046808 0.11 0.14033 0.1686 0.20783l0.10655 0.12273-0.073362 0.064442c-0.10998 0.096607-0.25274 0.19113-0.37635 0.24918-0.13458 0.063201-0.30225 0.079951-0.36283 0.036247zm0.8084-0.60585c-0.064775-0.076064-0.11776-0.14202-0.11774-0.14657 1.66e-5 -0.00455 0.1042-0.00827 0.23152-0.00827 0.12732 0 0.23148 0.00243 0.23147 0.00539-1.45e-5 0.00574-0.12163 0.1614-0.18781 0.24039l-0.03967 0.047347zm-0.18912-0.32404c-0.058488-0.00607-0.069489-0.016393-0.15128-0.14191-0.048514-0.07445-0.13047-0.21523-0.18212-0.31284l-0.093909-0.17748 0.078839-0.14953c0.043361-0.082239 0.12394-0.2219 0.17907-0.31035l0.10023-0.16082 0.17442-0.014592c0.095931-0.00803 0.26154-0.00915 0.36802-0.0025l0.1936 0.012096 0.099158 0.15959c0.054537 0.087776 0.13448 0.22859 0.17766 0.31293l0.078498 0.15333-0.087417 0.16981c-0.048079 0.093396-0.12803 0.23355-0.17766 0.31145l-0.090244 0.14164-0.10175 0.010635c-0.10508 0.010988-0.45392 0.010077-0.56512-0.0014699zm0.43154-0.31123c0.33376-0.13942 0.26219-0.63977-0.095201-0.66562-0.24008-0.017366-0.39496 0.13643-0.3777 0.37504 0.00951 0.13145 0.064973 0.21507 0.18099 0.27288 0.10029 0.049977 0.20014 0.056028 0.29192 0.017692zm-0.91961 0.26169c-0.17904-0.028947-0.17241-0.00787-0.078847-0.25083l0.053759-0.13959 0.076745 0.13921c0.04221 0.076568 0.096008 0.17084 0.11955 0.20949 0.050003 0.082093 0.061405 0.079316-0.17121 0.041707zm1.3697 0.024656c0-0.00338 0.048369-0.090914 0.10749-0.19452 0.059118-0.10361 0.10749-0.19436 0.10749-0.20167 0-0.00732 0.00571-0.0133 0.012683-0.0133 0.00698 0 0.041413 0.075248 0.076527 0.16722 0.049145 0.12872 0.058984 0.17022 0.042737 0.18026-0.011609 0.00717-0.081392 0.021888-0.15507 0.032696-0.073682 0.010808-0.14699 0.023209-0.16291 0.027558-0.015916 0.00435-0.028939 0.00514-0.028939 0.00176zm-1.8025-0.1347c-0.25313-0.089248-0.46678-0.22751-0.54699-0.354-0.05665-0.089327-0.059765-0.13107-0.01616-0.21654 0.036452-0.071451 0.10345-0.13443 0.22733-0.21372 0.090131-0.057684 0.33135-0.16183 0.41234-0.17803 0.044946-0.00899 0.049192-0.00506 0.069713 0.064435 0.012018 0.040704 0.054224 0.15344 0.093791 0.25053l0.071939 0.17652-0.054167 0.12695c-0.029792 0.069821-0.071125 0.17904-0.091852 0.2427-0.020727 0.063665-0.042374 0.12099-0.048105 0.12739-0.00573 0.0064-0.05876-0.0054-0.11784-0.026236zm2.3143-0.022611c-0.043056-0.11816-0.057759-0.15494-0.11909-0.29784l-0.065725-0.15315 0.057933-0.13624c0.031863-0.074932 0.074932-0.18461 0.095708-0.24373 0.020776-0.059118 0.039999-0.11038 0.042717-0.11393 0.00932-0.012148 0.26217 0.084187 0.37792 0.14399 0.13833 0.071465 0.31271 0.23623 0.32646 0.30846 0.030101 0.15813-0.19831 0.3618-0.55727 0.49691-0.13565 0.05106-0.13844 0.050981-0.15865-0.00447zm-1.9728-0.81642c-0.034041-0.092049-0.058363-0.17089-0.054049-0.17521 0.014506-0.014506 0.32268-0.06154 0.33335-0.050876 0.0058 0.0058-0.022526 0.065074-0.06295 0.13172-0.040424 0.066642-0.089609 0.15279-0.1093 0.19145-0.019692 0.038654-0.037907 0.07028-0.040479 0.07028-0.00257 0-0.032528-0.075313-0.066569-0.16736zm1.661 0.12168c-0.010827-0.026138-0.059709-0.11399-0.10863-0.19522-0.068942-0.11449-0.083198-0.14899-0.063398-0.15343 0.014049-0.00315 0.09501 0.00678 0.17991 0.022066l0.15437 0.027795-0.056662 0.15853c-0.031164 0.087193-0.063243 0.16511-0.071287 0.17316-0.00848 0.00848-0.022902-0.00536-0.03431-0.032898zm-1.7768-0.49425c-0.013343-0.045108-0.039746-0.2147-0.051206-0.32891-0.020705-0.20634 0.040513-0.43739 0.13173-0.49715 0.12378-0.081105 0.45198 0.050792 0.72314 0.29061l0.078549 0.069472-0.096428 0.11021c-0.053036 0.060618-0.1302 0.15486-0.17148 0.20943l-0.075054 0.099219-0.21299 0.030272c-0.11715 0.01665-0.23644 0.034129-0.2651 0.038844-0.040888 0.00673-0.054057 0.00199-0.061154-0.022004zm1.7917 0.00182c-0.059118-0.011848-0.16053-0.026634-0.22536-0.032857l-0.11787-0.011315-0.066293-0.093331c-0.036461-0.051332-0.11148-0.14686-0.16671-0.21229l-0.10042-0.11896 0.086148-0.077971c0.20022-0.18122 0.4424-0.30562 0.59731-0.30682 0.074239-5.7497e-4 0.088696 0.005524 0.13635 0.057521 0.029317 0.03199 0.062948 0.090388 0.074736 0.12977 0.028374 0.0948 0.027992 0.43831-6.433e-4 0.5801-0.025776 0.12763-0.020547 0.12556-0.21724 0.086138zm-1.0251-0.073737c3.308e-4 -0.016521 0.2168-0.26458 0.23089-0.26458 0.014505 0 0.18896 0.20135 0.21492 0.24805 0.011961 0.02152-0.016652 0.024805-0.21609 0.024805-0.12643 0-0.22981-0.00372-0.22971-0.00827z" fill="#222" stroke-width=".016536"/>
</svg>
